lib/flags/l/882.svg

<svg xmlns="http://www.w3.org/2000/svg" fill="none" viewBox="0 0 32 24"><mask id="882_svg__a" width="32" height="24" x="0" y="0" mask-type="alpha" maskUnits="userSpaceOnUse"><path fill="#fff" d="M0 0H32V24H0z"/></mask><g mask="url(#882_svg__a)"><path fill="#C51918" fill-rule="evenodd" d="M0 0V24H32V0H0Z" clip-rule="evenodd"/><mask id="882_svg__b" width="32" height="24" x="0" y="0" mask-type="alpha" maskUnits="userSpaceOnUse"><path fill="#fff" fill-rule="evenodd" d="M0 0V24H32V0H0Z" clip-rule="evenodd"/></mask><g fill-rule="evenodd" clip-rule="evenodd" mask="url(#882_svg__b)"><path fill="#2E42A5" d="M0 0V14H16V0H0Z"/><path fill="#FEFFFF" d="M3.56564 7.77201 2.50559 8.41196 2.74738 7.16317 1.86462 6.22857 3.05993 6.17803 3.56564 5.01196 4.07135 6.17803H5.26462L4.3839 7.16317 4.64905 8.41196 3.56564 7.77201zM11.5656 7.77201 10.5056 8.41196 10.7474 7.16317 9.86462 6.22857 11.0599 6.17803 11.5656 5.01196 12.0714 6.17803H13.2646L12.3839 7.16317 12.649 8.41196 11.5656 7.77201zM7.46558 4.13798 6.46789 4.74028 6.69546 3.56495 5.86462 2.68532 6.98962 2.63776 7.46558 1.54028 7.94154 2.63776H9.06462L8.23571 3.56495 8.48526 4.74028 7.46558 4.13798zM8.54625 8.42532 7.9227 8.80176 8.06492 8.06717 7.54565 7.51741 8.24878 7.48768 8.54625 6.80176 8.84373 7.48768H9.54565L9.02758 8.06717 9.18355 8.80176 8.54625 8.42532zM7.40876 12.8282 5.91222 13.7316 6.25357 11.9686 5.00732 10.6492 6.69482 10.5779 7.40876 8.93164 8.1227 10.5779H9.80732L8.56395 11.9686 8.93828 13.7316 7.40876 12.8282z"/></g></g></svg>

<svg xmlns="http://www.w3.org/2000/svg" fill="none" viewBox="0 0 32 24"><mask id="882_svg__a" width="32" height="24" x="0" y="0" maskUnits="userSpaceOnUse"><path fill="#fff" d="M0 0h32v24H0z"/></mask><g mask="url(#882_svg__a)"><path fill="#C51918" fill-rule="evenodd" d="M0 0v24h32V0H0z" clip-rule="evenodd"/><mask id="882_svg__b" width="32" height="24" x="0" y="0" maskUnits="userSpaceOnUse"><path fill="#fff" fill-rule="evenodd" d="M0 0v24h32V0H0z" clip-rule="evenodd"/></mask><g fill-rule="evenodd" clip-rule="evenodd" mask="url(#882_svg__b)"><path fill="#2E42A5" d="M0 0v14h16V0H0z"/><path fill="#FEFFFF" d="M3.566 7.772l-1.06.64.241-1.249-.882-.934 1.195-.051.506-1.166.505 1.166h1.194l-.881.985.265 1.249-1.083-.64zm8 0l-1.06.64.241-1.249-.882-.934 1.195-.051.506-1.166.505 1.166h1.194l-.881.985.265 1.249-1.083-.64zm-4.1-3.634l-.998.602.227-1.175-.83-.88 1.125-.047.476-1.098.476 1.098h1.123l-.83.927.25 1.175-1.02-.602zm1.08 4.287l-.623.377.142-.735-.52-.55.704-.03.297-.685.298.686h.702l-.518.58.156.734-.638-.377zm-1.137 4.403l-1.497.904.342-1.763-1.247-1.32 1.688-.071.714-1.646.714 1.646h1.684l-1.243 1.39.374 1.764-1.53-.904z"/></g></g></svg>
